X: 34853
T: Roast Gander And Tatties
R: jig
M: 6/8
K: Eminor
|:F|EGB EBG|A^GA F>=GA|EGB EBG|AFD E2 D|
EGB E/F/GB|A^GA F2 A|GFE FdB|AFD E2:|
|:A|B2 e e/f/ge|dBc dAF|Bee ege|f/g/af g2 A|
Bee ege|dBc d2 F|GFE FdB|AFD G2:|

